X: 40831
T: Tralee Gaol
R: polka
M: 2/4
K: Edorian
|:FA|BE- EF/A/|BE FA|BE G/F/E|DD/E/ FA|
BE FA|BE FE|DD/E/ FA|FE E:|
|:A|B>^A B^c/d/|eB ^c/B/A/F/|A>^G AB/^c/|dB ^c/B/A|
B2 B^c/d/|eB BA|Be B/^c/B/A/|FE E2:|

